X:22
T:Athole's Bonnie Lasses
R:Reel
C:James Stewart-Robertson
B:The Athole Collection
M:C|
L:1/8
K:G
B|G2DG B,G,DB,|A,A,EA, AA,EA|G2DG B,G,DB,|EGFA BGG:|
c|BG B/c/d g2dB|cedB cAAc|BG B/c/d g2 dB|cedc BGGc|BG B/c/d g2dB|
cedB cAAB|GDEG DGB,G|EGFA BGG||

